X:1
T:24 Arie Antiche
T:Vittoria, mio core!
T:Vittoria, mio core!
T:(24 Arie antiche) Cantata
T:Giacomo Carissimi (1605-1674) Alessandro Parisotti (1853-1913)
T:High voices
T:OpenScore (CC0)
T:OpenScore (CC0)
T:OpenScore (CC0)
T:OpenScore (CC0)
T:OpenScore (CC0)
C:Giacomo Carissimi (1605-1674)
Z:OpenScore (CC0)
%%score 1 { ( 2 4 5 ) | ( 3 6 ) }
L:1/8
Q:1/4=168
M:3/4
K:C
V:1 treble nm="Voice"
V:2 treble nm="Piano"
V:4 treble 
V:5 treble 
V:3 bass 
V:6 bass 
V:1
"^Allegro con brio" z2 z2!f! G2 | G2 E2 F2 | G2 C2 z c | c2 A2 ^A2 | c2 A2 F2 | (A2 G4) | %6
w: Vit-|to- ria! Vit-|to- ria! Vit-|to- ria! Vit-|to- ria, mio|co \-´- *|
 F4!p! C2 | D3 E F2 | E4 G2 | A3 B c2 | B4!f! B2 | d2!<(! d2 d2 | d2 c2!<)! B2 |!>(! B2 A3 G!>)! | %14
w: \- re! Non|la- gri- mar|più, Non|la- gri- mar|più, È|sciol- ta d'A-|mo- re La|vil ser- vi-|
 G4!mf! G2 | G2 E2 F2 | G2 C2 D2 | (E2 D4) | C4 G2 | A3 B c2 | B4 B2 | d2 (dB) (cd) | %22
w: tù; Vit-|to- ria! Vit-|to- ria, mio|co   \-- *|re! Non|la- gri- mar|più, È|sciol- ta _ d'A- *|
 (ed) (ed) (cB) | B2 A3 G | G4!p! G2 | (GFGEFG |"^cresc." cBcABc | dc!<(!dBcd | efedcB!<)! | %29
w: mo- * re _ La _|vil ser- vi-|tù, È|sciol- * * * * *||||
 A2) A2!f! B2 | c2 c2 d2 | (e2 d3)[Q:1/4=95] c | !fermata!c6 || %33
w: * ta d'A-|mo- re La|ser- * vi|tù.|
[Q:1/4=100]"^meno mosso e dolce assai" z2!p! z2 G2 | c2 c3 e | c2 c2 E2 | G2 G2 G2 | E2 C2 c2 | %38
w: Già|l'em- piaa´ tuoi|dan- ni, Fra|stuo- lo di|sguar- di, Con|
 e2 e2 e2 | c2 c2 G2 | d2 (ed) (cB) | (B2 A4) | G4 G2 |"^cresc." E2 C2 c2 | A2 F2 f2 | d2 c2 c2 | %46
w: vez- zi bu-|giar- di Di-|spo- se _ gl'in- *|gan  \-- *|ni; Le-|fro- de, gliaf-|fan- ni Non|han- no più|
 (dcde f2) | e4 G2 | c2 A2 d2 | B2 B2 c2 | d2 (ed) (cB) | (B2 A4) | %52
w: lo- * * * *|co, Del|cru- do suo|fo- co È|spen- to _ l'ar- *|do- *|
 G4[Q:1/4=168]"^Tempo I°"!f! G2 | G2 E2 F2 | G2 C2 z c | c2 A2 ^A2 | c2 A2 F2 | (A2 G4) | %58
w: re! Vit-|to- ria! Vit-|to- ria! Vit-|to- ria! Vit-|to- ria, mio|co- *|
 F4!p! C2 | D3 E F2 | E4 G2 | A3 B c2 | B4!f! B2 | d2 d2 d2 | d2 c2 B2 | B2 A3 G | G4!p! G2 | %67
w: re! Non|la- gri mar|più, Non|la- gri- mar|più, È|sciol- ta d'A-|mo- re La|vil ser- vi|tù; È|
 (GFGEFG |"^cresc." cBcABc | dcdBcd | efedcB | A2) A2!f! B2 | c2 c2 d2 | (e2 d3)[Q:1/4=95] c | %74
w: sciol- * * * * *||||* ta d'A-|mo- re La|ser- * vi|
 !fermata!c6 ||[Q:1/4=100]"^meno mosso e dolce assai" z2 z2!p! G2 | c2 c3 e | c2 c2 E2 | G2 G2 G2 | %79
w: tù!.|Da|lu- ci ri-|den- ti Non|e- sce più|
 E2 C2 c2 | e2 e2 e2 | c2 c2 G2 | d2 (ed) (cB) | (B2 A4) | G4 G2 |"^cresc." E2 C2 c2 | A2 F2 f2 | %87
w: stra- le, Che|pia- ga mor-|ta- le Nel|pet- to _ m'av- *|ven- *|ti: Nel|duol, ne' tor-|men- ti Lo|
 d2 c2 c2 |{de} (dcde f2) | e4 G2 |!<(! c2 A2 d2 | B2!<)! B2 c2 |!f! d2 (ed) (cB) | %93
w: più non mi|sfac- * * * *|cio, È|rot- too- gni|lac- cio, Spa-|ri- toil * ti- *|
!>(! (B2 A4)!>)! | G4!f![Q:1/4=168]"^Tempo 1°" G2 | G2 E2 F2 | G2 C2 z c | c2 A2 ^A2 | c2 A2 F2 | %99
w: mo- *|re! Vit-|to- ria! Vit-|to- ria! Vit-|to- ria! Vit-|to- ria, mio|
 (A2 G4) | F4!p! C2 | D3 E F2 | E4 G2 | A3 B c2 | B4!f! B2 | d2 d2 d2 | d2 c2 B2 | B2 A3 G | %108
w: co- *|re! Non|la- gri mar|più, Non|la- gri- mar|più, È|sciol- ta d'A-|mo- re La|vil ser- vi-|
 G4!p! G2 | (GFGEFG | c"^cresc."BcABc | dcdBcd | efedcB | A2) A2!f! B2 | %114
w: tù; È|sciol- * * * * *||||* ta d'A-|
[Q:1/4=150]"^largamente stent." c2[Q:1/4=140] c2 d2 | e2[Q:1/4=120]{de} d3[Q:1/4=100] c | %116
w: mo- re la|ser- * vi|
 !fermata!c6 |] %117
w: tù!|
V:2
 [G,EG]6 | [EG]2 [CE]2 [DF]2 | ([EG]2 C2) [Ac]2 | [Ac]2 [FA]2 [E^A]2 | [Fc]2 [FA]2 F2 | A2 G4 | %6
 [CF]2 C4- | (C2 B,4) | ([CE]2 C2) [DG-]2 | (G2 ^F2) [Fc]2 | ([GB]2 G2) B2 | d2!<(! d2 d2 | %12
 d2 c2!<)! B2 |!>(! B2 A4!>)! | ([B,G]2 G,2)!mf! [G,EG]2 | [EG]2 [CE]2 [G,B,F]2 | [CG]2 C2 D2 | %17
 (E2 D4) | C2 G4- | (G2 ^F2) [Fc]2 | ([GB]2 G2) [GB]2 | [DGBd]6 | d2 c2 B2 | B2 A4 | %24
 ([B,G]2 G,2)!p! G2 | ([G,CG]6 |"_cresc." G2) F2 c2- | c2 B2 d2- | d2 c2 e2 | %29
 [CFA]2 [A,CA]2 [DFB]2 | [CEc]2 [CGc]2 [Acd]2 | [Gce]2 !>![FGBd]4 | !fermata![EGc]6 || %33
!p! [G,CEG]6 | [G,CEG]6 | [G,CEG]6 | [B,DFG]6 | [CEG]6 | [CEG]6 | [CEG]6 | d2 c2 B2 | B2 A4 | %42
 [B,G]6 |"_cresc." [EG]6 | [FA]6 | G4 c2- | c2 B2 d2 | G6 | c2 A2 d2 | [DGB]4 [D^Fc]2 | d2 c3 B | %51
 (B2 A4) | [B,G]4!f! [G,EG]2 | [EG]2 [CE]2 [G,DF]2 | ([G,EG]2 C2) [CAc]2 | [Ac]2 [FA]2 [E^A]2 | %56
 [Fc]2 [FA]2 F2 | A2 G4 | [CF]2!p! C4 | D4 F2 | ([CE]2 C2) [DG-]2 | (G2 ^F2) [Fc]2 | %62
 ([GB]2 G2) B2 | d2 d2 d2 | d2 c2 B2 | B2 A4 | ([B,G]2 G,2)!p! G2 | [G,CG]6 |"_cresc." G2 F2 c2- | %69
 c2 B2 d2- | d2 c2 e2 | [CFA]2 [A,CA]2 [DFB]2 | [CEc]2 [CGc]2 [Acd]2 | [Gce]2 [FGBd]4 | %74
 !fermata![EGc]6 ||!p! [G,CEG]6 | [G,CEG]6 | [G,CEG]6 | [B,DFG]6 | [CEG]6 | [CEG]6 | [CEG]6 | %82
 d2 c2 B2 | (B2 A4) | [B,G]6 | [EG]6 | [FA]6 | G4 c2- | c2 B2 d2 | [EG]6 |!<(! c2 A2 d2 | %91
 [DGB]4!<)! [D^Fc]2 |!f! [DGd]2 c3 B |!>(! (B2 A4)!>)! | [B,G]4!f! [G,EG]2 | [EG]2 [CE]2 [G,DF]2 | %96
 ([G,EG]2 C2) [CAc]2 | [Ac]2 [FA]2 [CE^A]2 | [CFc]2 [FA]2 F2 | (A2 G4) | [CF]2 C4 | D4 F2 | %102
 ([CE]2 C2) [DG-]2 | (G2 ^F2) [CFc]2 | ([GB]2 G2) B2 | d2 d2 d2 | d2 c2 B2 | B2 A4 | %108
 ([B,G]2 G,2)!p! G2 | [G,CG]6 | G2 F2 c2- | c2 B2 d2- | d2 c2 e2 | [CFA]2 [A,CA]2 [DFB]2 | %114
 [CEc]2 [CGc]2 [Acd]2 | [Gce]2 !>![FGBd]4 | !fermata![EGc]6 |] %117
V:3
!f! [C,,C,]6 | [C,,C,]6 | [C,,C,]6 | [F,,F,]2 F,,2 G,,2 | A,,2 ^A,,4 | C,6 |!p! [F,A,]4 [E,G,]2 | %7
 [D,F,]6 | G,6 | [A,,A,]6 | G,6 | B,,6 | C,6 | D,6 | G,,6 | [C,,C,]4 [D,,D,]2 | [E,,E,]2 [F,,F,]4 | %17
 G,4 F,2 | E,4 G,2 | [A,,A,]6 | [G,,G,]6 | B,,6 | C,6 | D,6 | G,,6 | [E,,E,]6 | A,,6 | G,,6 | C,6 | %29
 F,2 [F,,F,]2 [G,,G,]2 | [A,,A,]2 [E,,E,]2 [F,,F,]2 | [G,,G,]2 !>![G,,,G,,]4 | !fermata![C,,C,]6 || %33
"^meno mosso e  dolce assai" C,6- | C,6 | C,6- | C,6 | C,6- | C,6 | C,6 | B,,2 C,4 | D,6 | G,,6 | %43
 [C,C]6 | [F,C]6 | B,2 C4 | D4 B,2 | C6 | A,,2 D,4 | G,,4 A,,2 | B,,2 C,4 | D,6 | G,,6 | [C,,C,]6 | %54
 [C,,C,]6 | [F,,F,]2 F,,2 G,,2 | A,,2 ^A,,4 | C,6 | [F,A,]4 [E,G,]2 | [D,F,]6 | G,6 | [A,,A,]6 | %62
 [G,,G,]6 | B,,6 | C,6 | D,6 | G,,6 | [E,,E,]6 | A,,6 | G,,6 | C,6 | F,2 [F,,F,]2 [G,,G,]2 | %72
 [A,,A,]2 [E,,E,]2 [F,,F,]2 | [G,,G,]2 [G,,,G,,]4 | !fermata![C,,C,]6 || %75
"^meno mosso e dolce assai" [C,,C,]6- | [C,,C,]6 | [C,,C,]6- | [C,,C,]6 | [C,,C,]6- | [C,,C,]6 | %81
 C,6 | B,,2 C,4 | D,6 | G,,6 |"^cresc." [C,C]6 | [F,C]6 | [G,B,]2 C4 | D4 B,2 | C6 | A,,2 D,4 | %91
 G,,4 A,,2 | B,,2 C,4 | D,6 | G,,6 | [C,,C,]6 | [C,,C,]6 | [F,,F,]2 F,,2 G,,2 | A,,2 ^A,,4 | C,6 | %100
 [F,A,]4!p! [E,G,]2 | [D,F,]6 | G,6 | [A,,A,]6 | [G,,G,]6 | B,,6 | C,6 | D,6 | G,,6 | [E,,E,]6 | %110
!<(! A,,6!<)! | G,,6 | C,6 | F,2 [F,,F,]2 [G,,G,]2 |"^col canto" [A,,A,]2 [E,,E,]2 [F,,F,]2 | %115
 [G,,G,]2 !>![G,,,G,,]4 | !fermata![C,,C,]6 |] %117
V:4
 x6 | G,4 G,2 | G,2 x2 C2 | C4 C2 | C2 D4 | F4 E2 | x2 C4 | D4 F2 | x6 | C4 C2 | D6 | [DG]6 | %12
 [EG]6 | G4 ^F2 | x6 | G,4 x2 | G,2 [A,C]4 | C4 B,2 | C4 D2 | C4 C2 | D4 D2 | x6 | [EG]6 | D6 | %24
 x6 | x6 | [A,C]4 [CF]2 | [DG]4 [GB]2 | [EG]4 [Gc]2 | x6 | x6 | x6 | x6 || x6 | x6 | x6 | x6 | x6 | %38
 x6 | x6 | [DG]2 [EG]4 | G4 ^F2 | x6 | x6 | x6 | D2 E2 G2 | F6 | E6 | [CE]2 [D^F]4 | x6 | %50
 [DG]2 [EG]4 | [DG]4 [C^F]2 | x6 | G,4 x2 | x6 | C4 C2 | C2 D4 | F4 E2 | x2 C4- | (C2 B,4) | x6 | %61
 C4 C2 | D6 | [DG]6 | [EG]6 | G4 ^F2 | x6 | x6 | [A,C]4 [CF]2 | [DG]4 [GB]2 | [EG]4 [Gc]2 | x6 | %72
 x6 | x6 | x6 || x6 | x6 | x6 | x6 | x6 | x6 | x6 | [DG]2 [EG]4 | G4 ^F2 | x6 | x6 | x6 | %87
 D2 E2 G2 | F6 | x6 | [CE]2 [D^F]4 | x6 | x2 [EG]4 | [DG]4 [C^F]2 | x6 | G,4 x2 | x6 | C4 x2 | %98
 x2 D4 | F4 E2 | x2 C4- | (C2 B,4) | x6 | C4 x2 | D6 | [DG]6 | [EG]6 | G4 ^F2 | x6 | x6 | %110
 [A,C]4 [CF]2 | [DG]4 [GB]2 | [EG]4 [Gc]2 | x6 | x6 | x6 | x6 |] %117
V:5
 x6 | x6 | x6 | x6 | x6 | C6 | x6 | x6 | x6 | x6 | x6 | x6 | x6 | D6 | x6 | x6 | x6 | x6 | x6 | %19
 x6 | x6 | x6 | x6 | G4 ^F2 | x6 | x6 | x6 | x6 | x6 | x6 | x6 | x6 | x6 || x6 | x6 | x6 | x6 | %37
 x6 | x6 | x6 | x6 | D6 | x6 | x6 | x6 | x6 | x6 | x6 | x6 | x6 | x6 | x6 | x6 | x6 | x6 | x6 | %56
 x6 | C6 | x6 | x6 | x6 | x6 | x6 | x6 | x6 | D6 | x6 | x6 | x6 | x6 | x6 | x6 | x6 | x6 | x6 || %75
 x6 | x6 | x6 | x6 | x6 | x6 | x6 | x6 | D6 | x6 | x6 | x6 | x6 | x6 | x6 | x6 | x6 | x6 | x6 | %94
 x6 | x6 | x6 | x6 | x6 | C6 | x6 | x6 | x6 | x6 | x6 | x6 | x6 | D6 | x6 | x6 | x6 | x6 | x6 | %113
 x6 | x6 | x6 | x6 |] %117
V:6
 x6 | x6 | x6 | x6 | x6 | x6 | x6 | x6 | C,4 B,,2 | x6 | G,,6 | x6 | x6 | x6 | x6 | x6 | x6 | %17
 G,,6 | C,4 B,,2 | x6 | x6 | x6 | x6 | x6 | x6 | x6 | x6 | x6 | x6 | x6 | x6 | x6 | x6 || C,,6- | %34
 C,,6 | C,,6- | C,,6 | C,,6- | C,,6 | x6 | x6 | x6 | x6 | x6 | x6 | G,2 E,4 | D,6 | C,6 | x6 | x6 | %50
 x6 | x6 | x6 | x6 | x6 | x6 | x6 | x6 | x6 | x6 | C,4 B,,2 | x6 | x6 | x6 | x6 | x6 | x6 | x6 | %68
 x6 | x6 | x6 | x6 | x6 | x6 | x6 || x6 | x6 | x6 | x6 | x6 | x6 | x6 | x6 | x6 | x6 | x6 | x6 | %87
 x2 E,4 | D,6 | C,6 | x6 | x6 | x6 | x6 | x6 | x6 | x6 | x6 | x6 | x6 | x6 | x6 | C,4 B,,2 | x6 | %104
 x6 | x6 | x6 | x6 | x6 | x6 | x6 | x6 | x6 | x6 | x6 | x6 | x6 |] %117

